X: 1
T: The Rights Of Man
R: hornpipe
M: 4/4
L: 1/8
K: Emin
|: GA | "Em" B2A2 G2F2 | EFGA B2ef | "G"  gfed "Em" edBd | "Am" cBAG "D" A2GA |
        "Em" (3BcB (3ABA (3GAG (3FGF | EFGA B2ef | "G"  gfed "Bm" Bgfg | "Em" e2 E2 E2     :|
|: ga | "Em" babg efga | babg egfe | "D"  d^cde fefg     |      afdf a2gf     |
        "Em" edef gfga | bg"D"af "C" gf"Em/B"ef | "Em/B" gfed "Bm/F#" Bgfg | "Em" e2 E2 E2 :|




